Adwaita++/emblems/16/emblem-dropbox-app.svg

<svg fill="none" height="16" viewBox="0 0 16 16" width="16" xmlns="http://www.w3.org/2000/svg">
  <path d="m13.6 1h-11.2c-.7732 0-1.4.6268-1.4 1.4v11.2c0 .7732.6268 1.4 1.4 1.4h11.2c.7732 0 1.4-.6268 1.4-1.4v-11.2c0-.7732-.6268-1.4-1.4-1.4z" fill="#2ec27e"/>
  <path d="m7.42857 3c-.57307 0-1.07143.46136-1.07143 1.0345v1.10836h-2.1675c-.38207 0-.68964.23371-.68964.61578v2.24136h1.0345c.57307 0 1.10836.49836 1.10836 1.07143 0 .57286-.53529 1.07147-1.10836 1.07147h-1.0345v2.1671c0 .3821.30757.69.68964.69h2.1675v-.69c0-.5729.0125-1.4236 1.07143-1.4529 1.05893-.0292 1.07143.9229 1.07143 1.4529v.69h2.2414c.3822 0 .6157-.3079.6157-.69v-2.1671h1.1086c.5729 0 1.0343-.49861 1.0343-1.07147 0-.57307-.4679-.98336-1.0343-1.07143h-1.1086v-2.24136c0-.38207-.2335-.61578-.6157-.61578h-2.2414v-1.10836c0-.57314-.49836-1.0345-1.07143-1.0345z" fill="#f6f5f4"/>
</svg>

<svg xmlns="http://www.w3.org/2000/svg" fill="none" width="16" height="16" viewBox="0 0 16 16">
 <path fill="url(#paint0_linear)" d="M13.6 1H2.4C1.6268 1 1 1.6268 1 2.4V13.6C1 14.3732 1.6268 15 2.4 15H13.6C14.3732 15 15 14.3732 15 13.6V2.4C15 1.6268 14.3732 1 13.6 1Z"/>
 <path fill="url(#paint1_linear)" d="M7.42857 3C6.8555 3 6.35714 3.46136 6.35714 4.0345V5.14286H4.18964C3.80757 5.14286 3.5 5.37657 3.5 5.75864V8H4.5345C5.10757 8 5.64286 8.49836 5.64286 9.07143C5.64286 9.64429 5.10757 10.1429 4.5345 10.1429H3.5V12.31C3.5 12.6921 3.80757 13 4.18964 13H6.35714V12.31C6.35714 11.7371 6.36964 10.8864 7.42857 10.8571C8.4875 10.8279 8.5 11.78 8.5 12.31V13H10.7414C11.1236 13 11.3571 12.6921 11.3571 12.31V10.1429H12.4657C13.0386 10.1429 13.5 9.64429 13.5 9.07143C13.5 8.49836 13.0321 8.08807 12.4657 8H11.3571V5.75864C11.3571 5.37657 11.1236 5.14286 10.7414 5.14286H8.5V4.0345C8.5 3.46136 8.00164 3 7.42857 3Z"/>
 <defs>
  <linearGradient id="paint0_linear" x1="1" x2="15" y1="8" y2="8" gradientUnits="userSpaceOnUse">
   <stop stop-color="#2EC27E"/>
  </linearGradient>
  <linearGradient id="paint1_linear" x1="3.5" x2="13.5" y1="8" y2="8" gradientUnits="userSpaceOnUse">
   <stop stop-color="#F6F5F4"/>
  </linearGradient>
 </defs>
</svg>
